src/assets/outline/Augur.svg

<svg width="24" height="24" viewBox="0 0 24 24"  xmlns="http://www.w3.org/2000/svg">
<path d="M12 22.75C6.07 22.75 1.25 17.93 1.25 12C1.25 6.07 6.07 1.25 12 1.25C17.93 1.25 22.75 6.07 22.75 12C22.75 17.93 17.93 22.75 12 22.75ZM12 2.75C6.9 2.75 2.75 6.9 2.75 12C2.75 17.1 6.9 21.25 12 21.25C17.1 21.25 21.25 17.1 21.25 12C21.25 6.9 17.1 2.75 12 2.75Z" />
<path d="M14.9999 11.7498C14.7299 11.7498 14.4599 11.5998 14.3299 11.3398L12.0399 6.74977H11.9699L9.67994 11.3398C9.49994 11.7098 9.04994 11.8598 8.66994 11.6798C8.29994 11.4898 8.14994 11.0398 8.32994 10.6698L10.8299 5.66977C10.9599 5.41977 11.2199 5.25977 11.4999 5.25977H12.4999C12.7799 5.25977 13.0399 5.41977 13.1699 5.66977L15.6699 10.6698C15.8599 11.0398 15.7099 11.4898 15.3299 11.6798C15.2299 11.7198 15.1099 11.7498 14.9999 11.7498Z" />
<path d="M11.9998 18.75C11.8698 18.75 11.7298 18.71 11.6098 18.64L6.60977 15.64C6.26977 15.44 6.14977 15.01 6.31977 14.66L7.31977 12.66C7.50977 12.29 7.95977 12.14 8.32977 12.32C8.69977 12.51 8.84977 12.96 8.66977 13.33L7.97977 14.71L11.9998 17.12L16.0198 14.71L15.3298 13.33C15.1398 12.96 15.2898 12.51 15.6698 12.32C16.0398 12.14 16.4898 12.28 16.6798 12.66L17.6798 14.66C17.8598 15.01 17.7298 15.44 17.3898 15.64L12.3898 18.64C12.2698 18.71 12.1298 18.75 11.9998 18.75Z" />
</svg>

<?xml version="1.0" encoding="UTF-8"?>
<svg width="24" height="24" viewBox="0 0 24 24" xmlns="http://www.w3.org/2000/svg">
 <path d="m12 22.75c-5.93 0-10.75-4.82-10.75-10.75s4.82-10.75 10.75-10.75 10.75 4.82 10.75 10.75-4.82 10.75-10.75 10.75zm0-20c-5.1 0-9.25 4.15-9.25 9.25s4.15 9.25 9.25 9.25 9.25-4.15 9.25-9.25-4.15-9.25-9.25-9.25z"/>
 <path d="m15 11.75c-0.27 0-0.54-0.15-0.67-0.41l-2.29-4.59h-0.07l-2.29 4.59c-0.18 0.37-0.63 0.52-1.01 0.34-0.37-0.19-0.52-0.64-0.34-1.01l2.5-5c0.13-0.25 0.39-0.41 0.67-0.41h1c0.28 0 0.54 0.16 0.67 0.41l2.5 5c0.19 0.37 0.04 0.82-0.34 1.01-0.1 0.04-0.22 0.07-0.33 0.07z"/>
 <path d="m12 18.75c-0.13 0-0.27-0.04-0.39-0.11l-5-3c-0.34-0.2-0.46-0.63-0.29-0.98l1-2c0.19-0.37 0.64-0.52 1.01-0.34 0.37 0.19 0.52 0.64 0.34 1.01l-0.69 1.38 4.02 2.41 4.02-2.41-0.69-1.38c-0.19-0.37-0.04-0.82 0.34-1.01 0.37-0.18 0.82-0.04 1.01 0.34l1 2c0.18 0.35 0.05 0.78-0.29 0.98l-5 3c-0.12 0.07-0.26 0.11-0.39 0.11z"/>
</svg>
